X:12
T: Kinek varrod anyám azt a gyolcs inget?
O: Trunk (Bákó), 1932
Q: 1/4=94
M:3/4
L:1/4
K:D
D/D/ F A | G/F/E/G/ | F/E/ D z | 
A/A/ d B | G/F/G/A/ | B/B/ A z | 
A/A/ d B | G/F/G/A/ | B/B/A z | 
D/D/ F A | G/F/E/G/ | F/E/ D z | 

